gama.ui.shared/icons_svg/dark/editor/find.references.svg

<?xml version="1.0" encoding="UTF-8" standalone="no"?>
<!DOCTYPE svg PUBLIC "-//W3C//DTD SVG 1.1//EN" "http://www.w3.org/Graphics/SVG/1.1/DTD/svg11.dtd">
<svg xmlns="http://www.w3.org/2000/svg" xmlns:xl="http://www.w3.org/1999/xlink" version="1.1" xmlns:dc="http://purl.org/dc/elements/1.1/" viewBox="-166.48272 -3263.748 25 25" width="25" height="25">
  <defs/>
  <g id="SOURCES" stroke-opacity="1" fill="none" stroke="none" fill-opacity="1" stroke-dasharray="none">
    <title>SOURCES</title>
    <g id="SOURCES_Dark">
      <title>Dark</title>
      <g id="Graphic_10959">
        <path d="M -162.14272 -3263.248 L -145.82272 -3263.248 C -143.70195 -3263.248 -141.98272 -3261.529 -141.98272 -3259.408 L -141.98272 -3243.088 C -141.98272 -3240.9673 -143.70195 -3239.248 -145.82272 -3239.248 L -162.14272 -3239.248 C -164.2635 -3239.248 -165.98272 -3240.9673 -165.98272 -3243.088 L -165.98272 -3259.408 C -165.98272 -3261.529 -164.2635 -3263.248 -162.14272 -3263.248 Z" fill="#666"/>
        <path d="M -162.14272 -3263.248 L -145.82272 -3263.248 C -143.70195 -3263.248 -141.98272 -3261.529 -141.98272 -3259.408 L -141.98272 -3243.088 C -141.98272 -3240.9673 -143.70195 -3239.248 -145.82272 -3239.248 L -162.14272 -3239.248 C -164.2635 -3239.248 -165.98272 -3240.9673 -165.98272 -3243.088 L -165.98272 -3259.408 C -165.98272 -3261.529 -164.2635 -3263.248 -162.14272 -3263.248 Z" stroke="white" stroke-linecap="round" stroke-linejoin="round" stroke-width=".25"/>
      </g>
      <g id="Graphic_10958">
        <path d="M -147.58272 -3255.624 L -147.58272 -3245.248 C -147.58272 -3244.144 -148.47872 -3243.248 -149.58272 -3243.248 L -158.38272 -3243.248 C -159.48672 -3243.248 -160.38272 -3244.144 -160.38272 -3245.248 L -160.38272 -3257.248 C -160.38272 -3258.352 -159.48672 -3259.248 -158.38272 -3259.248 L -151.20672 -3259.248 C -151.10272 -3259.248 -150.99072 -3259.216 -150.90272 -3259.128 L -147.70272 -3255.928 C -147.61472 -3255.84 -147.58272 -3255.728 -147.58272 -3255.624 Z M -151.58272 -3258.448 L -158.38272 -3258.448 C -159.04672 -3258.448 -159.58272 -3257.912 -159.58272 -3257.248 L -159.58272 -3245.248 C -159.58272 -3244.584 -159.04672 -3244.048 -158.38272 -3244.048 L -149.58272 -3244.048 C -148.91872 -3244.048 -148.38272 -3244.584 -148.38272 -3245.248 L -148.38272 -3255.248 L -151.18272 -3255.248 C -151.40672 -3255.248 -151.58272 -3255.424 -151.58272 -3255.648 Z M -150.78272 -3257.88 L -150.78272 -3256.048 L -148.95072 -3256.048 Z M -151.56672 -3248.6 L -150.09472 -3247.128 C -149.93472 -3246.968 -149.93472 -3246.72 -150.09472 -3246.56 C -150.25472 -3246.4 -150.50272 -3246.4 -150.66272 -3246.56 L -152.13472 -3248.032 C -152.75072 -3247.536 -153.53472 -3247.248 -154.38272 -3247.248 C -156.37472 -3247.248 -157.98272 -3248.856 -157.98272 -3250.848 C -157.98272 -3252.84 -156.37472 -3254.448 -154.38272 -3254.448 C -152.39072 -3254.448 -150.78272 -3252.84 -150.78272 -3250.848 C -150.78272 -3250 -151.07872 -3249.216 -151.56672 -3248.6 Z M -154.38272 -3248.048 C -152.83872 -3248.048 -151.58272 -3249.304 -151.58272 -3250.848 C -151.58272 -3252.392 -152.83872 -3253.648 -154.38272 -3253.648 C -155.92672 -3253.648 -157.18272 -3252.392 -157.18272 -3250.848 C -157.18272 -3249.304 -155.92672 -3248.048 -154.38272 -3248.048 Z" fill="#c0e0ff"/>
      </g>
    </g>
  </g>
</svg>

<svg height="25" viewBox="-166.483 -3263.748 25 25" width="25" xmlns="http://www.w3.org/2000/svg"><g fill="none"><path d="m-162.14272-3263.248h16.32c2.12077 0 3.84 1.719 3.84 3.84v16.32c0 2.1207-1.71923 3.84-3.84 3.84h-16.32c-2.12078 0-3.84-1.7193-3.84-3.84v-16.32c0-2.121 1.71922-3.84 3.84-3.84z" fill="#666"/><path d="m-162.14272-3263.248h16.32c2.12077 0 3.84 1.719 3.84 3.84v16.32c0 2.1207-1.71923 3.84-3.84 3.84h-16.32c-2.12078 0-3.84-1.7193-3.84-3.84v-16.32c0-2.121 1.71922-3.84 3.84-3.84z" stroke="#fff" stroke-linecap="round" stroke-linejoin="round" stroke-width=".25"/><path d="m-147.58272-3255.624v10.376c0 1.104-.896 2-2 2h-8.8c-1.104 0-2-.896-2-2v-12c0-1.104.896-2 2-2h7.176c.104 0 .216.032.304.12l3.2 3.2c.088.088.12.2.12.304zm-4-2.824h-6.8c-.664 0-1.2.536-1.2 1.2v12c0 .664.536 1.2 1.2 1.2h8.8c.664 0 1.2-.536 1.2-1.2v-10h-2.8c-.224 0-.4-.176-.4-.4zm.8.568v1.832h1.832zm-.784 9.28 1.472 1.472c.16.16.16.408 0 .568s-.408.16-.568 0l-1.472-1.472c-.616.496-1.4.784-2.248.784-1.992 0-3.6-1.608-3.6-3.6s1.608-3.6 3.6-3.6 3.6 1.608 3.6 3.6c0 .848-.296 1.632-.784 2.248zm-2.816.552c1.544 0 2.8-1.256 2.8-2.8s-1.256-2.8-2.8-2.8-2.8 1.256-2.8 2.8 1.256 2.8 2.8 2.8z" fill="#c0e0ff"/></g></svg>
